assets/Rocket/Flat/rocket_flat.svg

<svg width="32" height="32" viewBox="0 0 32 32" fill="none" xmlns="http://www.w3.org/2000/svg">
<path d="M29.2001 2.94972C28.253 2.00263 26.4999 1.9525 25.3817 2.52547C24.4693 2.83877 23.5081 3.19209 22.5278 3.58828L22.5383 3.59883C19.9627 4.69286 16.1108 6.63769 13.0279 9.49984C10.8637 11.5091 9.62366 13.0559 8.79313 14.4647L3.49489 16.4149C2.80991 16.6671 2.6171 17.5444 3.13322 18.0605C6.84572 21.773 10.5582 25.4855 14.2707 29.198C14.7868 29.7141 15.6641 29.5213 15.9163 28.8363L18.1197 22.8504C19.7284 21.8921 21.3425 20.6853 23.0279 18.9999C25.4183 16.6095 27.3936 12.4408 28.5413 9.64309L28.5496 9.65145C28.9506 8.66094 29.3079 7.68963 29.6243 6.76812C30.1973 5.64991 30.3642 4.11384 29.2001 2.94972Z" fill="#CA0B4A"/>
<path d="M23.2987 4.3645C20.7818 5.4041 16.8206 7.34324 13.7083 10.2327C11.6937 12.103 10.5374 13.5272 9.76899 14.7821C8.99995 16.0381 8.59391 17.1628 8.10621 18.5226L8.10371 18.5296C7.93354 19.0041 7.75311 19.5072 7.54517 20.0441L12.1006 24.5996C15.7031 23.1209 18.8412 21.7724 22.3208 18.2928C24.6722 15.9414 26.6597 11.6505 27.7751 8.87168L23.2987 4.3645Z" fill="#F4F4F4"/>
<path d="M24.5278 11.25C24.5278 13.0449 23.0727 14.5 21.2778 14.5C19.4828 14.5 18.0278 13.0449 18.0278 11.25C18.0278 9.45507 19.4828 8 21.2778 8C23.0727 8 24.5278 9.45507 24.5278 11.25Z" fill="#9B9B9B"/>
<path d="M23.5278 11.25C23.5278 12.4926 22.5204 13.5 21.2778 13.5C20.0351 13.5 19.0278 12.4926 19.0278 11.25C19.0278 10.0074 20.0351 9 21.2778 9C22.5204 9 23.5278 10.0074 23.5278 11.25Z" fill="#83CBFF"/>
<path d="M2.45122 29.6108C1.74411 28.9037 2.02779 24 4.52777 23C4.52777 23 7.02777 22 8.63878 23.6005C10.2498 25.2011 9.52776 26.9999 9.52776 26.9999C8.82068 29.1212 5.81033 29.9645 5.45679 29.6109C5.26153 29.4157 5.61314 29.0602 5.45679 28.9038C5.30045 28.7475 5.05904 28.9259 4.39613 29.2574C3.92473 29.4931 2.73406 29.8937 2.45122 29.6108Z" fill="#FF8257"/>
<path d="M6.08839 21.0607C6.67417 20.4749 7.62392 20.4749 8.20971 21.0607L11.7452 24.5962C12.331 25.182 12.331 26.1317 11.7452 26.7175C11.1595 27.3033 10.2097 27.3033 9.62392 26.7175L6.08839 23.182C5.5026 22.5962 5.5026 21.6465 6.08839 21.0607Z" fill="#533566"/>
<path d="M15.5351 18.722C15.977 17.5214 14.8098 16.3542 13.6092 16.7961L6.49489 19.4149C5.80991 19.6671 5.6171 20.5444 6.13322 21.0605L11.2707 26.198C11.7868 26.7141 12.6641 26.5213 12.9163 25.8363L15.5351 18.722Z" fill="#F92F60"/>
</svg>

<svg xmlns="http://www.w3.org/2000/svg" width="32" height="32" fill="none"><path fill="#CA0B4A" d="M29.2 2.95c-.947-.947-2.7-.998-3.818-.425-.913.314-1.874.667-2.854 1.063l.01.01c-2.575 1.095-6.427 3.04-9.51 5.902-2.164 2.01-3.404 3.556-4.235 4.965l-5.298 1.95a1 1 0 0 0-.362 1.646l11.138 11.137a1 1 0 0 0 1.645-.362l2.204-5.986c1.608-.958 3.223-2.165 4.908-3.85 2.39-2.39 4.366-6.56 5.513-9.357l.009.008c.4-.99.758-1.961 1.074-2.883.573-1.118.74-2.654-.424-3.818Z"/><path fill="#F4F4F4" d="M23.299 4.364c-2.517 1.04-6.478 2.98-9.59 5.869-2.015 1.87-3.172 3.294-3.94 4.55-.769 1.255-1.175 2.38-1.663 3.74l-.002.007c-.17.474-.35.977-.559 1.514l4.556 4.556c3.602-1.48 6.74-2.828 10.22-6.307 2.351-2.352 4.339-6.643 5.454-9.421L23.3 4.364Z"/><path fill="#9B9B9B" d="M24.528 11.25a3.25 3.25 0 1 1-6.5 0 3.25 3.25 0 0 1 6.5 0Z"/><path fill="#83CBFF" d="M23.528 11.25a2.25 2.25 0 1 1-4.5 0 2.25 2.25 0 0 1 4.5 0Z"/><path fill="#FF8257" d="M2.451 29.61C1.744 28.905 2.028 24 4.528 23c0 0 2.5-1 4.11.6 1.612 1.601.89 3.4.89 3.4-.707 2.121-3.718 2.965-4.071 2.61-.195-.194.156-.55 0-.706-.157-.157-.398.022-1.06.353-.472.236-1.663.637-1.946.354Z"/><path fill="#533566" d="M6.088 21.06a1.5 1.5 0 0 1 2.122 0l3.535 3.536a1.5 1.5 0 1 1-2.121 2.122l-3.536-3.536a1.5 1.5 0 0 1 0-2.121Z"/><path fill="#F92F60" d="M15.535 18.722c.442-1.2-.725-2.368-1.926-1.926l-7.114 2.619a1 1 0 0 0-.362 1.646l5.138 5.137a1 1 0 0 0 1.645-.362l2.62-7.114Z"/></svg>
